public/avatar/body/48.svg

<svg xmlns:xlink="http://www.w3.org/1999/xlink" height="82" width="84.85" xmlns="http://www.w3.org/2000/svg"><g transform="translate(37.4 42.25)"><use height="38" transform="translate(-11.95 -17.45)" width="32.05" xlink:href="#a"/><use height="21.6" transform="translate(-12.25 -17.95)" width="32.65" xlink:href="#b"/><use height="21.1" transform="matrix(1.033 0 0 1 3.557 1.8)" width="20.75" xlink:href="#c"/><use height="21.1" transform="matrix(-1.033 0 0 1 4.593 1.8)" width="20.75" xlink:href="#c"/></g><defs><use height="38" width="32.05" xlink:href="#d" id="a"/><use height="21.6" width="32.65" xlink:href="#e" id="b"/><use height="21.1" width="20.75" xlink:href="#f" id="c"/><path d="M27.35 7.4q2.15 4.15 3.55 8.75 1.45 4.7 1.15 9.5-.35 4.95-4.2 8.1-3.8 3.2-8.75 4.05l-2.6.2q-3.6 0-7.05-1.15-4.65-1.6-7.1-5.5Q-.2 27.4.05 23q.2-4.4 2-9.3Q3.85 8.75 7 5.05 10.1 1.3 14.7.1l1.8-.1q1.9.05 3.7.8 4.75 2.05 7.15 6.6" fill="#f1cea5" fill-rule="evenodd" transform="translate(-.05)" id="d"/><path d="M31.9 20.6q-.3-2.25-1-4.45-1.4-4.6-3.55-8.75-2.4-4.55-7.15-6.6-2.65-1.1-5.5-.7Q10.1 1.3 7 5.05q-3.15 3.7-4.95 8.65Q.7 17.3.25 20.6" fill="none" stroke="#600" stroke-linecap="round" stroke-linejoin="round" transform="translate(.25 .5)" id="e"/><g id="f"><path d="m8.6 8.1 1.05-.65 2.15-1.4q1.4-1 2.5-2.6Q15.35 1.9 15.75 0l.3 2.75q.25 1.9-.15 3.95-.35 1.85-1.1 3.75l-3.2 1.3-3.25 1L5 13.6l-3 .3H.7v-1.85l1.3-1.5Q3.35 9.3 5.3 9.6q2.05.5 3.75 1.6l.15-.5q.35-1.5-.6-2.6" fill="#fe7abc" fill-rule="evenodd" transform="translate(-.2 .5)"/><path d="M.7 13.9H2l3-.3 3.35-.85 3.25-1 3.2-1.3 1.6.75-.95 1.05.35 1.75-1.05-1.05-1.05.4q-.35.1-.6.3l-.15.3-.05.3.1.75-1.8-1-.65-.05-.5.95-.15.5q-.5-.6-1.4-.65-1.35 0-2.05 1.35l-.1-.1q-.1-.6-.75-.65l-1.4.05-.7 1.1q-1.05-1.4-2.8-1v-1.6" fill="#bcd2e9" fill-rule="evenodd" transform="translate(-.2 .5)"/><path d="m16.4 11.2 2.3 2.25 1.5 2.05q.45.75.1 1.5-1.3.85-2.5.45l-1.1-.1-.3.2-1 .35-1.4-.3q-.35.95-1.2 1.25l-1.9-.05-.7 1-3.2-.5v.5q-1.8.7-3.4-.35l-.75.35q-1.15.65-2.15 0v-4.3q1.75-.4 2.8 1l.7-1.1 1.4-.05q.65.05.75.65l.05.1h.05q.7-1.35 2.05-1.35.9.05 1.4.65l.15-.5.5-.95.65.05 1.8 1-.1-.75.05-.3.15-.3q.25-.2.6-.3l1.05-.4L15.8 14l-.35-1.75.95-1.05" fill="#fff" fill-rule="evenodd" transform="translate(-.2 .5)"/><path d="M8.6 8.1q.95 1.1.6 2.6l-.15.5q-1.7-1.1-3.75-1.6-1.95-.3-3.3.95l-1.3 1.5v-4.1L2.1 6.9q1.25-.95 2.9-.35L8.6 8.1" fill="#f39" fill-rule="evenodd" transform="translate(-.2 .5)"/><path d="M6.45 16.1H6.4l-.05-.1.1.1" fill="#fcc" fill-rule="evenodd" transform="translate(-.2 .5)"/><path d="M14.8 10.45q.75-1.9 1.1-3.75.4-2.05.15-3.95L15.75 0q-.4 1.9-1.45 3.45-1.1 1.6-2.5 2.6l-2.15 1.4-1.05.65L5 6.55q-1.65-.6-2.9.35L.7 7.95" fill="none" stroke="#c00161" stroke-linecap="round" stroke-linejoin="round" transform="translate(-.2 .5)"/><path d="M.7 13.9H2l3-.3 3.35-.85 3.25-1 3.2-1.3 1.6.75 2.3 2.25 1.5 2.05q.45.75.1 1.5-1.3.85-2.5.45l-1.1-.1-.3.2-1 .35-1.4-.3q-.35.95-1.2 1.25l-1.9-.05-.7 1-3.2-.5v.5q-1.8.7-3.4-.35l-.75.35q-1.15.65-2.15 0" fill="none" stroke="#369" stroke-linecap="round" stroke-linejoin="round" transform="translate(-.2 .5)"/></g></defs></svg>

<?xml version="1.0" encoding="UTF-8" standalone="no"?>
<svg xmlns:xlink="http://www.w3.org/1999/xlink" height="82.0px" width="84.85px" xmlns="http://www.w3.org/2000/svg">
  <g transform="matrix(1.0, 0.0, 0.0, 1.0, 37.4, 42.25)">
    <use height="38.0" transform="matrix(1.0, 0.0, 0.0, 1.0, -11.95, -17.45)" width="32.05" xlink:href="#sprite0"/>
    <use height="21.6" transform="matrix(1.0, 0.0, 0.0, 1.0, -12.25, -17.95)" width="32.65" xlink:href="#sprite1"/>
    <use height="21.1" transform="matrix(1.033, 0.0, 0.0, 1.0, 3.5566, 1.8)" width="20.75" xlink:href="#sprite2"/>
    <use height="21.1" transform="matrix(-1.033, 0.0, 0.0, 1.0, 4.5934, 1.8)" width="20.75" xlink:href="#sprite2"/>
  </g>
  <defs>
    <g id="sprite0" transform="matrix(1.0, 0.0, 0.0, 1.0, -0.05, 0.0)">
      <use height="38.0" transform="matrix(1.0, 0.0, 0.0, 1.0, 0.05, 0.0)" width="32.05" xlink:href="#shape0"/>
    </g>
    <g id="shape0" transform="matrix(1.0, 0.0, 0.0, 1.0, -0.05, 0.0)">
      <path d="M27.35 7.4 Q29.5 11.55 30.9 16.15 32.35 20.85 32.05 25.65 31.7 30.6 27.85 33.75 24.05 36.95 19.1 37.8 L16.5 38.0 Q12.9 38.0 9.45 36.85 4.8 35.25 2.35 31.35 -0.2 27.4 0.05 23.0 0.25 18.6 2.05 13.7 3.85 8.75 7.0 5.05 10.1 1.3 14.7 0.1 L16.5 0.0 Q18.4 0.05 20.2 0.8 24.95 2.85 27.35 7.4" fill="#f1cea5" fill-rule="evenodd" stroke="none"/>
    </g>
    <g id="sprite1" transform="matrix(1.0, 0.0, 0.0, 1.0, 0.25, 0.5)">
      <use height="21.6" transform="matrix(1.0, 0.0, 0.0, 1.0, -0.25, -0.5)" width="32.65" xlink:href="#shape1"/>
    </g>
    <g id="shape1" transform="matrix(1.0, 0.0, 0.0, 1.0, 0.25, 0.5)">
      <path d="M31.9 20.6 Q31.6 18.35 30.9 16.15 29.5 11.55 27.35 7.4 24.95 2.85 20.2 0.8 17.55 -0.3 14.7 0.1 10.1 1.3 7.0 5.05 3.85 8.75 2.05 13.7 0.7 17.3 0.25 20.6" fill="none" stroke="#660000" stroke-linecap="round" stroke-linejoin="round" stroke-width="1.0"/>
    </g>
    <g id="sprite2" transform="matrix(1.0, 0.0, 0.0, 1.0, -0.2, 0.5)">
      <use height="21.1" transform="matrix(1.0, 0.0, 0.0, 1.0, 0.2, -0.5)" width="20.75" xlink:href="#shape2"/>
    </g>
    <g id="shape2" transform="matrix(1.0, 0.0, 0.0, 1.0, -0.2, 0.5)">
      <path d="M8.6 8.1 L9.65 7.45 11.8 6.05 Q13.2 5.05 14.3 3.45 15.35 1.9 15.75 0.0 L16.05 2.75 Q16.3 4.65 15.9 6.7 15.55 8.55 14.8 10.45 L11.6 11.75 8.35 12.75 5.0 13.6 2.0 13.9 0.7 13.9 0.7 12.05 2.0 10.55 Q3.35 9.3 5.3 9.6 7.35 10.1 9.05 11.2 L9.2 10.7 Q9.55 9.2 8.6 8.1" fill="#fe7abc" fill-rule="evenodd" stroke="none"/>
      <path d="M0.7 13.9 L2.0 13.9 5.0 13.6 8.35 12.75 11.6 11.75 14.8 10.45 16.4 11.2 15.45 12.25 15.8 14.0 14.75 12.95 13.7 13.35 Q13.35 13.45 13.1 13.65 L12.95 13.95 12.9 14.25 13.0 15.0 11.2 14.0 10.55 13.95 10.05 14.9 9.9 15.4 Q9.4 14.8 8.5 14.75 7.15 14.75 6.45 16.1 L6.35 16.0 Q6.25 15.4 5.6 15.35 L4.2 15.4 3.5 16.5 Q2.45 15.1 0.7 15.5 L0.7 13.9" fill="#bcd2e9" fill-rule="evenodd" stroke="none"/>
      <path d="M16.4 11.2 L18.7 13.45 20.2 15.5 Q20.65 16.25 20.3 17.0 19.0 17.85 17.8 17.45 L16.7 17.35 16.4 17.55 15.4 17.9 14.0 17.6 Q13.65 18.55 12.8 18.85 L10.9 18.8 10.2 19.8 7.0 19.3 7.0 19.8 Q5.2 20.5 3.6 19.45 L2.85 19.8 Q1.7 20.45 0.7 19.8 L0.7 15.5 Q2.45 15.1 3.5 16.5 L4.2 15.4 5.6 15.35 Q6.25 15.4 6.35 16.0 L6.4 16.1 6.45 16.1 Q7.15 14.75 8.5 14.75 9.4 14.8 9.9 15.4 L10.05 14.9 10.55 13.95 11.2 14.0 13.0 15.0 12.9 14.25 12.95 13.95 13.1 13.65 Q13.35 13.45 13.7 13.35 L14.75 12.95 15.8 14.0 15.45 12.25 16.4 11.2" fill="#ffffff" fill-rule="evenodd" stroke="none"/>
      <path d="M8.6 8.1 Q9.55 9.2 9.2 10.7 L9.05 11.2 Q7.35 10.1 5.3 9.6 3.35 9.3 2.0 10.55 L0.7 12.05 0.7 7.95 2.1 6.9 Q3.35 5.95 5.0 6.55 L8.6 8.1" fill="#ff3399" fill-rule="evenodd" stroke="none"/>
      <path d="M6.45 16.1 L6.4 16.1 6.35 16.0 6.45 16.1" fill="#ffcccc" fill-rule="evenodd" stroke="none"/>
      <path d="M14.8 10.45 Q15.55 8.55 15.9 6.7 16.3 4.65 16.05 2.75 L15.75 0.0 Q15.35 1.9 14.3 3.45 13.2 5.05 11.8 6.05 L9.65 7.45 8.6 8.1 5.0 6.55 Q3.35 5.95 2.1 6.9 L0.7 7.95" fill="none" stroke="#c00161" stroke-linecap="round" stroke-linejoin="round" stroke-width="1.0"/>
      <path d="M0.7 13.9 L2.0 13.9 5.0 13.6 8.35 12.75 11.6 11.75 14.8 10.45 16.4 11.2 18.7 13.45 20.2 15.5 Q20.65 16.25 20.3 17.0 19.0 17.85 17.8 17.45 L16.7 17.35 16.4 17.55 15.4 17.9 14.0 17.6 Q13.65 18.55 12.8 18.85 L10.9 18.8 10.2 19.8 7.0 19.3 7.0 19.8 Q5.2 20.5 3.6 19.45 L2.85 19.8 Q1.7 20.45 0.7 19.8" fill="none" stroke="#336699" stroke-linecap="round" stroke-linejoin="round" stroke-width="1.0"/>
    </g>
  </defs>
</svg>
